;FLAVOR:Marlin
;TIME:1601
;Filament used: 1.35648m
;Layer height: 0.15
;MINX:105.2
;MINY:105.2
;MINZ:0.3
;MAXX:134.8
;MAXY:134.8
;MAXZ:19.95
;Generated with Cura_SteamEngine 4.13.1
M140 S60
M105
M190 S60
M104 S215
M105
M109 S215
M82 ;absolute extrusion mode
G21 ;metric values
G90 ;absolute positioning
M82 ;set extruder to absolute mode
M107 ;start with the fan off
G28
G29
G1 Z30.0 F9000 ;move the gentry up 30mm
G92 E0 ;zero the extruded length
G1 F200 E10 ;extrude 10mm of feed stock
G92 E0 ;zero the extruded length again
G1 F9000
G92 E0
G92 E0
G1 F2100 E-3
;LAYER_COUNT:132
;LAYER:0
M107
G0 F3000 X106.157 Y106.478 Z0.3
;TYPE:SKIRT
G1 F2100 E0
G1 F1500 X106.552 Y106.094 E0.02748
G1 X106.998 Y105.77 E0.05499
G1 X107.486 Y105.515 E0.08246
G1 X108.006 Y105.332 E0.10996
G1 X108.547 Y105.227 E0.13745
G1 X109 Y105.2 E0.16009
G1 X131 Y105.2 E1.25768
G1 X131.55 Y105.24 E1.28519
G1 X132.088 Y105.359 E1.31268
G1 X132.603 Y105.555 E1.34017
G1 X133.084 Y105.823 E1.36764
G1 X133.522 Y106.157 E1.39512
G1 X133.906 Y106.552 E1.42261
G1 X134.23 Y106.998 E1.45011
G1 X134.485 Y107.486 E1.47758
G1 X134.668 Y108.006 E1.50508
G1 X134.773 Y108.547 E1.53258
G1 X134.8 Y109 E1.55522
G1 X134.8 Y131 E2.6528
G1 X134.76 Y131.55 E2.68031
G1 X134.641 Y132.088 E2.7078
G1 X134.445 Y132.603 E2.73529
G1 X134.177 Y133.084 E2.76276
G1 X133.843 Y133.522 E2.79024
G1 X133.448 Y133.906 E2.81773
G1 X133.002 Y134.23 E2.84523
G1 X132.514 Y134.485 E2.8727
G1 X131.994 Y134.668 E2.9002
G1 X131.453 Y134.773 E2.9277
G1 X131 Y134.8 E2.95034
G1 X109 Y134.8 E4.04792
G1 X108.45 Y134.76 E4.07544
G1 X107.912 Y134.641 E4.10292
G1 X107.397 Y134.445 E4.13042
G1 X106.916 Y134.177 E4.15789
G1 X106.478 Y133.843 E4.18537
G1 X106.094 Y133.448 E4.21285
G1 X105.77 Y133.002 E4.24035
G1 X105.515 Y132.514 E4.26782
G1 X105.332 Y131.994 E4.29533
G1 X105.227 Y131.453 E4.32282
G1 X105.2 Y131 E4.34546
G1 X105.2 Y109 E5.44305
G1 X105.24 Y108.45 E5.47056
G1 X105.359 Y107.912 E5.49805
G1 X105.555 Y107.397 E5.52554
G1 X105.823 Y106.916 E5.55301
G1 X106.157 Y106.478 E5.58049
G0 F3000 X106.552 Y106.64
G1 F1500 X106.942 Y106.294 E5.6065
G1 X107.38 Y106.011 E5.63252
G1 X107.855 Y105.798 E5.65849
G1 X108.358 Y105.661 E5.6845
G1 X109 Y105.6 E5.71667
G1 X131 Y105.6 E6.81426
G1 X131.52 Y105.64 E6.84027
G1 X132.027 Y105.759 E6.86626
G1 X132.51 Y105.954 E6.89224
G1 X132.958 Y106.22 E6.91824
G1 X133.36 Y106.552 E6.94425
G1 X133.706 Y106.942 E6.97026
G1 X133.989 Y107.38 E6.99628
G1 X134.202 Y107.855 E7.02225
G1 X134.339 Y108.358 E7.04826
G1 X134.4 Y109 E7.08043
G1 X134.4 Y131 E8.17801
G1 X134.36 Y131.52 E8.20403
G1 X134.241 Y132.027 E8.23002
G1 X134.046 Y132.51 E8.256
G1 X133.78 Y132.958 E8.282
G1 X133.448 Y133.36 E8.30801
G1 X133.058 Y133.706 E8.33402
G1 X132.62 Y133.989 E8.36003
G1 X132.145 Y134.202 E8.38601
G1 X131.642 Y134.339 E8.41201
G1 X131 Y134.4 E8.44419
G1 X109 Y134.4 E9.54177
G1 X108.48 Y134.36 E9.56779
G1 X107.973 Y134.241 E9.59377
G1 X107.49 Y134.046 E9.61976
G1 X107.042 Y133.78 E9.64575
G1 X106.64 Y133.448 E9.67177
G1 X106.294 Y133.058 E9.69778
G1 X106.011 Y132.62 E9.72379
G1 X105.798 Y132.145 E9.74976
G1 X105.661 Y131.642 E9.77577
G1 X105.6 Y131 E9.80795
G1 X105.6 Y109 E10.90553
G1 X105.64 Y108.48 E10.93155
G1 X105.759 Y107.973 E10.95753
G1 X105.954 Y107.49 E10.98352
G1 X106.22 Y107.042 E11.00951
G1 X106.552 Y106.64 E11.03552
G0 F3000 X106.618 Y107.176
G1 F1500 X106.946 Y106.813 E11.05993
G1 X107.329 Y106.508 E11.08436
G1 X107.757 Y106.27 E11.10879
G1 X108.217 Y106.104 E11.13319
G1 X109 Y106 E11.1726
G1 X131 Y106 E12.27018
G1 X131.488 Y106.04 E12.29461
G1 X131.963 Y106.159 E12.31904
G1 X132.412 Y106.353 E12.34344
G1 X132.824 Y106.618 E12.36788
G1 X133.187 Y106.946 E12.39229
G1 X133.492 Y107.329 E12.41672
G1 X133.73 Y107.757 E12.44115
G1 X133.896 Y108.217 E12.46555
G1 X134 Y109 E12.50495
G1 X134 Y131 E13.60254
G1 X133.96 Y131.488 E13.62697
G1 X133.841 Y131.963 E13.6514
G1 X133.647 Y132.412 E13.6758
G1 X133.382 Y132.824 E13.70024
G1 X133.054 Y133.187 E13.72465
G1 X132.671 Y133.492 E13.74907
G1 X132.243 Y133.73 E13.7735
G1 X131.783 Y133.896 E13.7979
G1 X131 Y134 E13.83731
G1 X109 Y134 E14.93489
G1 X108.512 Y133.96 E14.95932
G1 X108.037 Y133.841 E14.98375
G1 X107.588 Y133.647 E15.00815
G1 X107.176 Y133.382 E15.03259
G1 X106.813 Y133.054 E15.057
G1 X106.508 Y132.671 E15.08143
G1 X106.27 Y132.243 E15.10586
G1 X106.104 Y131.783 E15.13026
G1 X106 Y131 E15.16967
G1 X106 Y109 E16.26725
G1 X106.04 Y108.512 E16.29168
G1 X106.159 Y108.037 E16.31611
G1 X106.353 Y107.588 E16.34051
G1 X106.618 Y107.176 E16.36495
G0 F3000 X107.015 Y107.321
G1 F1500 X107.338 Y107 E16.38767
G1 X107.713 Y106.741 E16.41041
G1 X108.127 Y106.551 E16.43313
G1 X108.568 Y106.436 E16.45587
G1 X109 Y106.4 E16.4775
G1 X131 Y106.4 E17.57508
G1 X131.454 Y106.44 E17.59782
G1 X131.894 Y106.558 E17.62055
G1 X132.306 Y106.752 E17.64327
G1 X132.679 Y107.015 E17.66604
G1 X133 Y107.338 E17.68876
G1 X133.259 Y107.713 E17.71149
G1 X133.449 Y108.127 E17.73422
G1 X133.564 Y108.568 E17.75696
G1 X133.6 Y109 E17.77858
G1 X133.6 Y131 E18.87617
G1 X133.56 Y131.454 E18.89891
G1 X133.442 Y131.894 E18.92163
G1 X133.248 Y132.306 E18.94435
G1 X132.985 Y132.679 E18.96712
G1 X132.662 Y133 E18.98984
G1 X132.287 Y133.259 E19.01258
G1 X131.873 Y133.449 E19.0353
G1 X131.432 Y133.564 E19.05804
G1 X131 Y133.6 E19.07967
G1 X109 Y133.6 E20.17725
G1 X108.546 Y133.56 E20.19999
G1 X108.106 Y133.442 E20.22272
G1 X107.694 Y133.248 E20.24544
G1 X107.321 Y132.985 E20.26821
G1 X107 Y132.662 E20.29093
G1 X106.741 Y132.287 E20.31366
G1 X106.551 Y131.873 E20.33639
G1 X106.436 Y131.432 E20.35913
G1 X106.4 Y131 E20.38076
G1 X106.4 Y109 E21.47834
G1 X106.44 Y108.546 E21.50108
G1 X106.558 Y108.106 E21.5238
G1 X106.752 Y107.694 E21.54652
G1 X107.015 Y107.321 E21.56929
G0 F3000 X107.41 Y107.48
G1 F1500 X107.727 Y107.206 E21.5902
G1 X108.09 Y106.997 E21.6111
G1 X108.487 Y106.861 E21.63203
G1 X109 Y106.8 E21.65781
G1 X131 Y106.8 E22.75539
G1 X131.417 Y106.84 E22.77629
G1 X131.819 Y106.958 E22.79719
G1 X132.191 Y107.151 E22.8181
G1 X132.52 Y107.41 E22.83899
G1 X132.794 Y107.727 E22.85989
G1 X133.003 Y108.09 E22.88079
G1 X133.139 Y108.487 E22.90173
G1 X133.2 Y109 E22.9275
G1 X133.2 Y131 E24.02509
G1 X133.16 Y131.417 E24.04599
G1 X133.042 Y131.819 E24.06689
G1 X132.849 Y132.191 E24.0878
G1 X132.59 Y132.52 E24.10869
G1 X132.273 Y132.794 E24.12959
G1 X131.91 Y133.003 E24.15049
G1 X131.513 Y133.139 E24.17142
G1 X131 Y133.2 E24.1972
G1 X109 Y133.2 E25.29478
G1 X108.583 Y133.16 E25.31568
G1 X108.181 Y133.042 E25.33658
G1 X107.809 Y132.849 E25.35749
G1 X107.48 Y132.59 E25.37838
G1 X107.206 Y132.273 E25.39929
G1 X106.997 Y131.91 E25.42018
G1 X106.861 Y131.513 E25.44112
G1 X106.8 Y131 E25.46689
G1 X106.8 Y109 E26.56448
G1 X106.84 Y108.583 E26.58538
G1 X106.958 Y108.181 E26.60628
G1 X107.151 Y107.809 E26.62719
G1 X107.41 Y107.48 E26.64808
G0 F3000 X107.548 Y107.936
G1 F1500 X107.803 Y107.655 E26.66701
G1 X108.112 Y107.435 E26.68593
G1 X108.459 Y107.283 E26.70483
G1 X109 Y107.2 E26.73214
G1 X131 Y107.2 E27.82972
G1 X131.377 Y107.24 E27.84864
G1 X131.737 Y107.358 E27.86754
G1 X132.064 Y107.548 E27.88641
G1 X132.345 Y107.803 E27.90534
G1 X132.565 Y108.112 E27.92426
G1 X132.717 Y108.459 E27.94316
G1 X132.8 Y109 E27.97047
G1 X132.8 Y131 E29.06805
G1 X132.76 Y131.377 E29.08697
G1 X132.642 Y131.737 E29.10587
G1 X132.452 Y132.064 E29.12474
G1 X132.197 Y132.345 E29.14367
G1 X131.888 Y132.565 E29.16259
G1 X131.541 Y132.717 E29.18149
G1 X131 Y132.8 E29.2088
G1 X109 Y132.8 E30.30638
G1 X108.623 Y132.76 E30.3253
G1 X108.263 Y132.642 E30.3442
G1 X107.936 Y132.452 E30.36307
G1 X107.655 Y132.197 E30.382
G1 X107.435 Y131.888 E30.40092
G1 X107.283 Y131.541 E30.41982
G1 X107.2 Y131 E30.44713
G1 X107.2 Y109 E31.54471
G1 X107.24 Y108.623 E31.56363
G1 X107.358 Y108.263 E31.58253
G1 X107.548 Y107.936 E31.60139
G0 F3000 X107.945 Y108.079
G1 F1500 X108.193 Y107.856 E31.61803
G1 X108.487 Y107.697 E31.63471
G1 X109 Y107.6 E31.66076
G1 X131 Y107.6 E32.75834
G1 X131.332 Y107.64 E32.77502
G1 X131.644 Y107.757 E32.79165
G1 X131.921 Y107.945 E32.80835
G1 X132.144 Y108.193 E32.82499
G1 X132.303 Y108.487 E32.84166
G1 X132.4 Y109 E32.86771
G1 X132.4 Y131 E33.9653
G1 X132.36 Y131.332 E33.98198
G1 X132.243 Y131.644 E33.9986
G1 X132.055 Y131.921 E34.01531
G1 X131.807 Y132.144 E34.03195
G1 X131.513 Y132.303 E34.04862
G1 X131 Y132.4 E34.07467
G1 X109 Y132.4 E35.17225
G1 X108.668 Y132.36 E35.18894
G1 X108.356 Y132.243 E35.20556
G1 X108.079 Y132.055 E35.22226
G1 X107.856 Y131.807 E35.2389
G1 X107.697 Y131.513 E35.25558
G1 X107.6 Y131 E35.28162
G1 X107.6 Y109 E36.37921
G1 X107.64 Y108.668 E36.39589
G1 X107.757 Y108.356 E36.41252
G1 X107.945 Y108.079 E36.42922
G0 F3000 X108.339 Y108.249
G1 F1500 X108.575 Y108.095 E36.44328
G1 X109 Y108 E36.465
G1 X131 Y108 E37.56259
G1 X131.279 Y108.04 E37.57665
G1 X131.536 Y108.156 E37.59072
G1 X131.751 Y108.339 E37.6048
G1 X131.905 Y108.575 E37.61886
G1 X132 Y109 E37.64059
G1 X132 Y131 E38.73817
G1 X131.96 Y131.279 E38.75223
G1 X131.844 Y131.536 E38.7663
G1 X131.661 Y131.751 E38.78039
G1 X131.425 Y131.905 E38.79445
G1 X131 Y132 E38.81617
G1 X109 Y132 E39.91376
G1 X108.721 Y131.96 E39.92782
G1 X108.464 Y131.844 E39.94189
G1 X108.249 Y131.661 E39.95597
G1 X108.095 Y131.425 E39.97003
G1 X108 Y131 E39.99176
G1 X108 Y109 E41.08934
G1 X108.04 Y108.721 E41.1034
G1 X108.156 Y108.464 E41.11747
G1 X108.339 Y108.249 E41.13156
G0 F3000 X108.553 Y108.599
G1 F1500 X108.726 Y108.466 E41.14244
G1 X109 Y108.4 E41.15651
G1 X131 Y108.4 E42.25409
G1 X131.215 Y108.44 E42.265
G1 X131.401 Y108.553 E42.27586
G1 X131.534 Y108.726 E42.28674
G1 X131.6 Y109 E42.30081
G1 X131.6 Y131 E43.39839
G1 X131.56 Y131.215 E43.4093
G1 X131.447 Y131.401 E43.42016
G1 X131.274 Y131.534 E43.43105
G1 X131 Y131.6 E43.44511
G1 X109 Y131.6 E44.54269
G1 X108.785 Y131.56 E44.5536
G1 X108.599 Y131.447 E44.56446
G1 X108.466 Y131.274 E44.57535
G1 X108.4 Y131 E44.58941
G1 X108.4 Y109 E45.68699
G1 X108.44 Y108.785 E45.6979
G1 X108.553 Y108.599 E45.70876
G0 F3000 X108.839 Y108.881
G1 F1500 X109 Y108.8 E45.71775
G1 X131 Y108.8 E46.81534
G1 X131.119 Y108.839 E46.82158
G1 X131.2 Y109 E46.83057
G1 X131.2 Y131 E47.92816
G1 X131.161 Y131.119 E47.93441
G1 X131 Y131.2 E47.9434
G1 X109 Y131.2 E49.04098
G1 X108.881 Y131.161 E49.04723
G1 X108.8 Y131 E49.05622
G1 X108.8 Y109 E50.15381
G1 X108.839 Y108.881 E50.16005
G1 F2100 E47.16005
;MESH:17-2020.STL
G0 F3000 X110.614 Y110.614
G0 X129.33 Y129.33
G1 F2100 E50.16005
G0 F3000 X129.8 Y129.8
;TYPE:WALL-OUTER
G1 F1500 X110.2 Y129.8 E51.1379
G1 X110.2 Y110.2 E52.11575
G1 X129.8 Y110.2 E53.0936
G1 X129.8 Y129.8 E54.07145
G0 F3000 X129.6 Y129.8
G0 X129.4 Y129.4
;TYPE:WALL-INNER
G1 F1500 X110.6 Y129.4 E55.00938
G1 X110.6 Y110.6 E55.94732
G1 X129.4 Y110.6 E56.88525
G1 X129.4 Y129.4 E57.82319
G0 F3000 X129.01 Y129.01
;TYPE:SKIN
G1 F1500 X110.99 Y129.01 E58.72221
G1 X110.99 Y110.99 E59.62123
G1 X129.01 Y110.99 E60.52025
G1 X129.01 Y129.01 E61.41928
G0 F3000 X128.829 Y111.293
G1 F1500 X128.706 Y111.169 E61.42799
G0 F3000 X128.14 Y111.169
G1 F1500 X128.829 Y111.859 E61.47664
G0 F3000 X128.829 Y112.425
G1 F1500 X127.574 Y111.169 E61.56522
G0 F3000 X127.009 Y111.169
G1 F1500 X128.829 Y112.99 E61.69367
G0 F3000 X128.829 Y113.556
G1 F1500 X126.443 Y111.169 E61.86205
G0 F3000 X125.877 Y111.169
G1 F1500 X128.829 Y114.122 E62.07036
G0 F3000 X128.829 Y114.687
G1 F1500 X125.312 Y111.169 E62.31854
G0 F3000 X124.746 Y111.169
G1 F1500 X128.829 Y115.253 E62.60665
G0 F3000 X128.829 Y115.819
G1 F1500 X124.18 Y111.169 E62.9347
G0 F3000 X123.614 Y111.169
G1 F1500 X128.829 Y116.384 E63.30265
G0 F3000 X128.829 Y116.95
G1 F1500 X123.049 Y111.169 E63.71049
G0 F3000 X122.483 Y111.169
G1 F1500 X128.829 Y117.516 E64.15827
G0 F3000 X128.829 Y118.081
G1 F1500 X121.917 Y111.169 E64.64595
G0 F3000 X121.352 Y111.169
G1 F1500 X128.829 Y118.647 E65.17353
G0 F3000 X128.829 Y119.213
G1 F1500 X120.786 Y111.169 E65.74104
G0 F3000 X120.22 Y111.169
G1 F1500 X128.829 Y119.778 E66.34845
G0 F3000 X128.829 Y120.344
G1 F1500 X119.655 Y111.169 E66.99576
G0 F3000 X119.089 Y111.169
G1 F1500 X128.829 Y120.91 E67.68301
G0 F3000 X128.829 Y121.475
G1 F1500 X118.523 Y111.169 E68.41015
G0 F3000 X117.958 Y111.169
G1 F1500 X128.829 Y122.041 E69.17719
G0 F3000 X128.829 Y122.607
G1 F1500 X117.392 Y111.169 E69.98417
G0 F3000 X116.826 Y111.169
G1 F1500 X128.829 Y123.173 E70.83108
G0 F3000 X128.829 Y123.738
G1 F1500 X116.261 Y111.169 E71.71786
G0 F3000 X115.695 Y111.169
G1 F1500 X128.829 Y124.304 E72.64457
G0 F3000 X128.829 Y124.87
G1 F1500 X115.129 Y111.169 E73.61121
G0 F3000 X114.564 Y111.169
G1 F1500 X128.829 Y125.435 E74.61772
G0 F3000 X128.829 Y126.001
G1 F1500 X113.998 Y111.169 E75.66416
G0 F3000 X113.432 Y111.169
G1 F1500 X128.829 Y126.567 E76.75054
G0 F3000 X128.829 Y127.132
G1 F1500 X112.866 Y111.169 E77.87682
G0 F3000 X112.301 Y111.169
G1 F1500 X128.829 Y127.698 E79.04299
G0 F3000 X128.829 Y128.264
G1 F1500 X111.735 Y111.169 E80.2491
G0 F3000 X111.169 Y111.169
G1 F1500 X128.829 Y128.829 E81.49511
G0 F3000 X128.263 Y128.829
G1 F1500 X111.169 Y111.735 E82.70118
G0 F3000 X111.169 Y112.301
G1 F1500 X127.697 Y128.829 E83.86732
G0 F3000 X127.132 Y128.829
G1 F1500 X111.169 Y112.866 E84.9936
G0 F3000 X111.169 Y113.432
G1 F1500 X126.566 Y128.829 E86.07994
G0 F3000 X126 Y128.829
G1 F1500 X111.169 Y113.998 E87.12635
G0 F3000 X111.169 Y114.564
G1 F1500 X125.435 Y128.829 E88.13286
G0 F3000 X124.869 Y128.829
G1 F1500 X111.169 Y115.129 E89.09946
G0 F3000 X111.169 Y115.695
G1 F1500 X124.303 Y128.829 E90.02614
G0 F3000 X123.738 Y128.829
G1 F1500 X111.169 Y116.261 E90.91291
G0 F3000 X111.169 Y116.826
G1 F1500 X123.172 Y128.829 E91.75979
G0 F3000 X122.606 Y128.829
G1 F1500 X111.169 Y117.392 E92.56673
G0 F3000 X111.169 Y117.958
G1 F1500 X122.04 Y128.829 E93.33374
G0 F3000 X121.475 Y128.829
G1 F1500 X111.169 Y118.523 E94.06088
G0 F3000 X111.169 Y119.089
G1 F1500 X120.909 Y128.829 E94.74809
G0 F3000 X120.343 Y128.829
G1 F1500 X111.169 Y119.655 E95.39537
G0 F3000 X111.169 Y120.22
G1 F1500 X119.778 Y128.829 E96.00278
G0 F3000 X119.212 Y128.829
G1 F1500 X111.169 Y120.786 E96.57026
G0 F3000 X111.169 Y121.352
G1 F1500 X118.646 Y128.829 E97.0978
G0 F3000 X118.081 Y128.829
G1 F1500 X111.169 Y121.917 E97.58548
G0 F3000 X111.169 Y122.483
G1 F1500 X117.515 Y128.829 E98.03322
G0 F3000 X116.949 Y128.829
G1 F1500 X111.169 Y123.049 E98.44103
G0 F3000 X111.169 Y123.614
G1 F1500 X116.384 Y128.829 E98.80898
G0 F3000 X115.818 Y128.829
G1 F1500 X111.169 Y124.18 E99.13699
G0 F3000 X111.169 Y124.746
G1 F1500 X115.252 Y128.829 E99.42507
G0 F3000 X114.687 Y128.829
G1 F1500 X111.169 Y125.312 E99.67325
G0 F3000 X111.169 Y125.877
G1 F1500 X114.121 Y128.829 E99.88153
G0 F3000 X113.555 Y128.829
G1 F1500 X111.169 Y126.443 E100.04987
G0 F3000 X111.169 Y127.009
G1 F1500 X112.99 Y128.829 E100.17832
G0 F3000 X112.424 Y128.829
G1 F1500 X111.169 Y127.574 E100.26687
G0 F3000 X111.169 Y128.14
G1 F1500 X111.858 Y128.829 E100.31548
G0 F3000 X111.292 Y128.829
G1 F1500 X111.169 Y128.706 E100.32416
;MESH:NONMESH
G0 F300 X111.169 Y128.706 Z0.45
G0 F3000 X129.33 Y129.33
G0 X129.4 Y129.4
;TIME_ELAPSED:90.092070
;LAYER:1
M106 S153
;TYPE:WALL-INNER
;MESH:17-2020.STL
G1 F2760 X110.6 Y129.4 E100.79313
G1 X110.6 Y110.6 E101.26209
G1 X129.4 Y110.6 E101.73106
G1 X129.4 Y129.4 E102.20003
G0 F4500 X129.8 Y129.8
;TYPE:WALL-OUTER
G1 F1770 X110.2 Y129.8 E102.68895
G1 X110.2 Y110.2 E103.17788
G1 X129.8 Y110.2 E103.6668
G1 X129.8 Y129.8 E104.15573
G0 F4500 X129.6 Y129.8
G0 X129.01 Y129.01
;TYPE:SKIN
G1 F1500 X110.99 Y129.01 E104.60524
G1 X110.99 Y110.99 E105.05475
G1 X129.01 Y110.99 E105.50426
G1 X129.01 Y129.01 E105.95377
G0 F4500 X128.829 Y128.557
G1 F1500 X128.556 Y128.829 E105.96338
G0 F4500 X127.991 Y128.829
G1 F1500 X128.829 Y127.991 E105.99294
G0 F4500 X128.829 Y127.426
G1 F1500 X127.425 Y128.829 E106.04246
G0 F4500 X126.859 Y128.829
G1 F1500 X128.829 Y126.86 E106.11194
G0 F4500 X128.829 Y126.294
G1 F1500 X126.294 Y128.829 E106.20137
G0 F4500 X125.728 Y128.829
G1 F1500 X128.829 Y125.729 E106.31074
G0 F4500 X128.829 Y125.163
G1 F1500 X125.162 Y128.829 E106.44009
G0 F4500 X124.597 Y128.829
G1 F1500 X128.829 Y124.597 E106.58938
