;FLAVOR:Marlin
;TIME:1507
;Filament used: 1.35368m
;Layer height: 0.15
;MINX:105.8
;MINY:105.8
;MINZ:0.3
;MAXX:134.2
;MAXY:134.2
;MAXZ:19.95
;Generated with Cura_SteamEngine 4.13.1
M190 S60
M109 S215
M82 ;absolute extrusion mode
G21 ;metric values
G90 ;absolute positioning
M82 ;set extruder to absolute mode
M107 ;start with the fan off
G28
G29
G1 Z30.0 F9000 ;move the gentry up 30mm
G92 E0 ;zero the extruded length
G1 F200 E10 ;extrude 10mm of feed stock
G92 E0 ;zero the extruded length again
G1 F9000
;Put printing message on LCD screen
M117 Printing...
G92 E0
G92 E0
G1 F2100 E-4.5
;LAYER_COUNT:132
;LAYER:0
M107
M204 S5000
G0 F3600 X106.913 Y107.264 Z0.3
M204 S2000
;TYPE:SKIRT
G1 F2100 E0
G1 F1800 X107.264 Y106.913 E0.02476
G1 X107.681 Y106.553 E0.05225
G1 X108.145 Y106.256 E0.07973
G1 X108.648 Y106.03 E0.10725
G1 X109.178 Y105.879 E0.13474
G1 X109.951 Y105.8 E0.17351
G1 X130.049 Y105.8 E1.1762
G1 X130.599 Y105.84 E1.20371
G1 X131.137 Y105.959 E1.2312
G1 X131.652 Y106.155 E1.25869
G1 X132.133 Y106.423 E1.28616
G1 X132.736 Y106.913 E1.32493
G1 X133.087 Y107.264 E1.34969
G1 X133.447 Y107.681 E1.37718
G1 X133.744 Y108.145 E1.40466
G1 X133.97 Y108.648 E1.43217
G1 X134.121 Y109.178 E1.45967
G1 X134.2 Y109.951 E1.49843
G1 X134.2 Y130.049 E2.50113
G1 X134.16 Y130.599 E2.52864
G1 X134.041 Y131.137 E2.55613
G1 X133.845 Y131.652 E2.58362
G1 X133.577 Y132.133 E2.61109
G1 X133.087 Y132.736 E2.64985
G1 X132.736 Y133.087 E2.67462
G1 X132.319 Y133.447 E2.7021
G1 X131.855 Y133.744 E2.72959
G1 X131.352 Y133.97 E2.7571
G1 X130.822 Y134.121 E2.78459
G1 X130.049 Y134.2 E2.82336
G1 X109.951 Y134.2 E3.82605
G1 X109.401 Y134.16 E3.85357
G1 X108.863 Y134.041 E3.88106
G1 X108.348 Y133.845 E3.90855
G1 X107.867 Y133.577 E3.93602
G1 X107.264 Y133.087 E3.97478
G1 X106.913 Y132.736 E3.99955
G1 X106.553 Y132.319 E4.02703
G1 X106.256 Y131.855 E4.05452
G1 X106.03 Y131.352 E4.08203
G1 X105.879 Y130.822 E4.10952
G1 X105.8 Y130.049 E4.14829
G1 X105.8 Y109.951 E5.15098
G1 X105.84 Y109.401 E5.17849
G1 X105.959 Y108.863 E5.20598
G1 X106.155 Y108.348 E5.23347
G1 X106.423 Y107.867 E5.26094
G1 X106.913 Y107.264 E5.29971
M204 S5000
G0 F3600 X107.196 Y107.547
M204 S2000
G1 F1800 X107.547 Y107.196 E5.32447
G1 X107.943 Y106.857 E5.35048
G1 X108.385 Y106.582 E5.37645
G1 X108.865 Y106.378 E5.40247
G1 X109.37 Y106.25 E5.42846
G1 X109.951 Y106.2 E5.45756
G1 X130.049 Y106.2 E6.46025
G1 X130.569 Y106.24 E6.48627
G1 X131.076 Y106.359 E6.51225
G1 X131.559 Y106.554 E6.53824
G1 X132.007 Y106.82 E6.56423
G1 X132.453 Y107.196 E6.59333
G1 X132.804 Y107.547 E6.6181
G1 X133.143 Y107.943 E6.64411
G1 X133.418 Y108.385 E6.67008
G1 X133.622 Y108.865 E6.6961
G1 X133.75 Y109.37 E6.72209
G1 X133.8 Y109.951 E6.75118
G1 X133.8 Y130.049 E7.75388
G1 X133.76 Y130.569 E7.7799
G1 X133.641 Y131.076 E7.80588
G1 X133.446 Y131.559 E7.83186
G1 X133.18 Y132.007 E7.85786
G1 X132.804 Y132.453 E7.88696
G1 X132.453 Y132.804 E7.91173
G1 X132.057 Y133.143 E7.93773
G1 X131.615 Y133.418 E7.9637
G1 X131.135 Y133.622 E7.98972
G1 X130.63 Y133.75 E8.01572
G1 X130.049 Y133.8 E8.04481
G1 X109.951 Y133.8 E9.0475
G1 X109.431 Y133.76 E9.07352
G1 X108.924 Y133.641 E9.0995
G1 X108.441 Y133.446 E9.12549
G1 X107.993 Y133.18 E9.15148
G1 X107.547 Y132.804 E9.18059
G1 X107.196 Y132.453 E9.20535
G1 X106.857 Y132.057 E9.23136
G1 X106.582 Y131.615 E9.25733
G1 X106.378 Y131.135 E9.28335
G1 X106.25 Y130.63 E9.30934
G1 X106.2 Y130.049 E9.33843
G1 X106.2 Y109.951 E10.34113
G1 X106.24 Y109.431 E10.36715
G1 X106.359 Y108.924 E10.39313
G1 X106.554 Y108.441 E10.41912
G1 X106.82 Y107.993 E10.44511
G1 X107.196 Y107.547 E10.47421
M204 S5000
G0 F3600 X107.218 Y108.127
M204 S2000
G1 F1800 X107.83 Y107.479 E10.51868
G1 X108.203 Y107.162 E10.5431
G1 X108.623 Y106.91 E10.56754
G1 X109.078 Y106.73 E10.59195
G1 X109.556 Y106.626 E10.61636
G1 X109.951 Y106.6 E10.63611
G1 X130.049 Y106.6 E11.6388
G1 X130.537 Y106.64 E11.66323
G1 X131.012 Y106.759 E11.68766
G1 X131.461 Y106.953 E11.71206
G1 X131.873 Y107.218 E11.7365
G1 X132.521 Y107.83 E11.78097
G1 X132.838 Y108.203 E11.80539
G1 X133.09 Y108.623 E11.82982
G1 X133.27 Y109.078 E11.85424
G1 X133.374 Y109.556 E11.87864
G1 X133.4 Y109.951 E11.89839
G1 X133.4 Y130.049 E12.90108
G1 X133.36 Y130.537 E12.92551
G1 X133.241 Y131.012 E12.94994
G1 X133.047 Y131.461 E12.97434
G1 X132.782 Y131.873 E12.99878
G1 X132.17 Y132.521 E13.04325
G1 X131.797 Y132.838 E13.06767
G1 X131.377 Y133.09 E13.09211
G1 X130.922 Y133.27 E13.11652
G1 X130.444 Y133.374 E13.14093
G1 X130.049 Y133.4 E13.16068
G1 X109.951 Y133.4 E14.16337
G1 X109.463 Y133.36 E14.1878
G1 X108.988 Y133.241 E14.21223
G1 X108.539 Y133.047 E14.23663
G1 X108.127 Y132.782 E14.26107
G1 X107.479 Y132.17 E14.30554
G1 X107.162 Y131.797 E14.32996
G1 X106.91 Y131.377 E14.3544
G1 X106.73 Y130.922 E14.37881
G1 X106.626 Y130.444 E14.40321
G1 X106.6 Y130.049 E14.42296
G1 X106.6 Y109.951 E15.42566
G1 X106.64 Y109.463 E15.45008
G1 X106.759 Y108.988 E15.47451
G1 X106.953 Y108.539 E15.49892
G1 X107.218 Y108.127 E15.52336
M204 S5000
G0 F3600 X107.762 Y108.113
M204 S2000
G1 F1800 X108.462 Y107.469 E15.57081
G1 X108.857 Y107.242 E15.59354
G1 X109.285 Y107.087 E15.61625
G1 X109.951 Y107 E15.64976
G1 X130.049 Y107 E16.65245
G1 X130.503 Y107.04 E16.67519
G1 X130.943 Y107.158 E16.69792
G1 X131.355 Y107.352 E16.72064
G1 X131.887 Y107.762 E16.75415
G1 X132.531 Y108.462 E16.8016
G1 X132.758 Y108.857 E16.82433
G1 X132.913 Y109.285 E16.84704
G1 X133 Y109.951 E16.88055
G1 X133 Y130.049 E17.88324
G1 X132.96 Y130.503 E17.90598
G1 X132.842 Y130.943 E17.92871
G1 X132.648 Y131.355 E17.95143
G1 X132.238 Y131.887 E17.98494
G1 X131.538 Y132.531 E18.03239
G1 X131.143 Y132.758 E18.05512
G1 X130.715 Y132.913 E18.07783
G1 X130.049 Y133 E18.11134
G1 X109.951 Y133 E19.11403
G1 X109.497 Y132.96 E19.13677
G1 X109.057 Y132.842 E19.1595
G1 X108.645 Y132.648 E19.18222
G1 X108.113 Y132.238 E19.21573
G1 X107.469 Y131.538 E19.26318
G1 X107.242 Y131.143 E19.28591
G1 X107.087 Y130.715 E19.30862
G1 X107 Y130.049 E19.34213
G1 X107 Y109.951 E20.34482
G1 X107.04 Y109.497 E20.36756
G1 X107.158 Y109.057 E20.39029
G1 X107.352 Y108.645 E20.41301
G1 X107.762 Y108.113 E20.44652
M204 S5000
G0 F3600 X108.044 Y108.395
M204 S2000
G1 F1800 X108.719 Y107.778 E20.49214
G1 X109.086 Y107.577 E20.51302
G1 X109.486 Y107.45 E20.53395
G1 X109.951 Y107.4 E20.55729
G1 X130.049 Y107.4 E21.55998
G1 X130.466 Y107.44 E21.58088
G1 X130.868 Y107.558 E21.60178
G1 X131.24 Y107.751 E21.62269
G1 X131.605 Y108.044 E21.64604
G1 X132.222 Y108.719 E21.69167
G1 X132.423 Y109.086 E21.71254
G1 X132.55 Y109.486 E21.73348
G1 X132.6 Y109.951 E21.75681
G1 X132.6 Y130.049 E22.75951
G1 X132.56 Y130.466 E22.78041
G1 X132.442 Y130.868 E22.80131
G1 X132.249 Y131.24 E22.82222
G1 X131.956 Y131.605 E22.84557
G1 X131.281 Y132.222 E22.89119
G1 X130.914 Y132.423 E22.91207
G1 X130.514 Y132.55 E22.93301
G1 X130.049 Y132.6 E22.95634
G1 X109.951 Y132.6 E23.95903
G1 X109.534 Y132.56 E23.97993
G1 X109.132 Y132.442 E24.00083
G1 X108.76 Y132.249 E24.02174
G1 X108.395 Y131.956 E24.04509
G1 X107.778 Y131.281 E24.09072
G1 X107.577 Y130.914 E24.11159
G1 X107.45 Y130.514 E24.13253
G1 X107.4 Y130.049 E24.15586
G1 X107.4 Y109.951 E25.15856
G1 X107.44 Y109.534 E25.17946
G1 X107.558 Y109.132 E25.20036
G1 X107.751 Y108.76 E25.22127
G1 X108.044 Y108.395 E25.24462
M204 S5000
G0 F3600 X108.148 Y108.887
M204 S2000
G1 F1800 X108.678 Y108.327 E25.28309
G1 X108.973 Y108.089 E25.302
G1 X109.311 Y107.918 E25.32089
G1 X109.677 Y107.821 E25.33978
G1 X109.951 Y107.8 E25.35349
G1 X130.049 Y107.8 E26.35619
G1 X130.426 Y107.84 E26.3751
G1 X130.786 Y107.958 E26.394
G1 X131.113 Y108.148 E26.41287
G1 X131.673 Y108.678 E26.45134
G1 X131.911 Y108.973 E26.47025
G1 X132.082 Y109.311 E26.48915
G1 X132.179 Y109.677 E26.50804
G1 X132.2 Y109.951 E26.52175
G1 X132.2 Y130.049 E27.52444
G1 X132.16 Y130.426 E27.54335
G1 X132.042 Y130.786 E27.56225
G1 X131.852 Y131.113 E27.58112
G1 X131.322 Y131.673 E27.61959
G1 X131.027 Y131.911 E27.6385
G1 X130.689 Y132.082 E27.6574
G1 X130.323 Y132.179 E27.67629
G1 X130.049 Y132.2 E27.69
G1 X109.951 Y132.2 E28.69269
G1 X109.574 Y132.16 E28.71161
G1 X109.214 Y132.042 E28.73051
G1 X108.887 Y131.852 E28.74937
G1 X108.327 Y131.322 E28.78784
G1 X108.089 Y131.027 E28.80675
G1 X107.918 Y130.689 E28.82565
G1 X107.821 Y130.323 E28.84454
G1 X107.8 Y130.049 E28.85825
G1 X107.8 Y109.951 E29.86094
G1 X107.84 Y109.574 E29.87986
G1 X107.958 Y109.214 E29.89876
G1 X108.148 Y108.887 E29.91763
M204 S5000
G0 F3600 X108.61 Y108.961
M204 S2000
G1 F1800 X109.224 Y108.404 E29.95899
G1 X109.528 Y108.265 E29.97566
G1 X109.951 Y108.2 E29.99701
G1 X130.049 Y108.2 E30.99971
G1 X130.381 Y108.24 E31.01639
G1 X130.693 Y108.357 E31.03301
G1 X131.039 Y108.61 E31.0544
G1 X131.596 Y109.224 E31.09576
G1 X131.735 Y109.528 E31.11243
G1 X131.8 Y109.951 E31.13379
G1 X131.8 Y130.049 E32.13648
G1 X131.76 Y130.381 E32.15316
G1 X131.643 Y130.693 E32.16979
G1 X131.39 Y131.039 E32.19117
G1 X130.776 Y131.596 E32.23253
G1 X130.472 Y131.735 E32.24921
G1 X130.049 Y131.8 E32.27056
G1 X109.951 Y131.8 E33.27325
G1 X109.619 Y131.76 E33.28994
G1 X109.307 Y131.643 E33.30656
G1 X108.961 Y131.39 E33.32794
G1 X108.404 Y130.776 E33.3693
G1 X108.265 Y130.472 E33.38598
G1 X108.2 Y130.049 E33.40733
G1 X108.2 Y109.951 E34.41002
G1 X108.24 Y109.619 E34.42671
G1 X108.357 Y109.307 E34.44333
G1 X108.61 Y108.961 E34.46472
M204 S5000
G0 F3600 X108.756 Y109.415
M204 S2000
G1 F1800 X109.244 Y108.893 E34.50037
G1 X109.47 Y108.724 E34.51445
G1 X109.734 Y108.624 E34.52853
G1 X109.951 Y108.6 E34.53942
G1 X130.049 Y108.6 E35.54212
G1 X130.328 Y108.64 E35.55618
G1 X130.585 Y108.756 E35.57025
G1 X131.107 Y109.244 E35.6059
G1 X131.276 Y109.47 E35.61997
G1 X131.376 Y109.734 E35.63406
G1 X131.4 Y109.951 E35.64495
G1 X131.4 Y130.049 E36.64764
G1 X131.36 Y130.328 E36.66171
G1 X131.244 Y130.585 E36.67577
G1 X130.756 Y131.107 E36.71142
G1 X130.53 Y131.276 E36.7255
G1 X130.266 Y131.376 E36.73959
G1 X130.049 Y131.4 E36.75048
G1 X109.951 Y131.4 E37.75317
G1 X109.672 Y131.36 E37.76723
G1 X109.415 Y131.244 E37.7813
G1 X108.893 Y130.756 E37.81695
G1 X108.724 Y130.53 E37.83103
G1 X108.624 Y130.266 E37.84512
G1 X108.6 Y130.049 E37.85601
G1 X108.6 Y109.951 E38.8587
G1 X108.64 Y109.672 E38.87276
G1 X108.756 Y109.415 E38.88683
M204 S5000
G0 F3600 X109.176 Y109.527
M204 S2000
G1 F1800 X109.527 Y109.176 E38.9116
G1 X109.706 Y109.052 E38.92246
G1 X109.951 Y109 E38.93495
G1 X130.049 Y109 E39.93765
G1 X130.264 Y109.04 E39.94856
G1 X130.473 Y109.176 E39.961
G1 X130.824 Y109.527 E39.98576
G1 X130.948 Y109.706 E39.99663
G1 X131 Y109.951 E40.00912
G1 X131 Y130.049 E41.01182
G1 X130.96 Y130.264 E41.02273
G1 X130.824 Y130.473 E41.03517
G1 X130.473 Y130.824 E41.05993
G1 X130.294 Y130.948 E41.0708
G1 X130.049 Y131 E41.08329
G1 X109.951 Y131 E42.08598
G1 X109.736 Y130.96 E42.09689
G1 X109.527 Y130.824 E42.10933
G1 X109.176 Y130.473 E42.1341
G1 X109.052 Y130.294 E42.14496
G1 X109 Y130.049 E42.15746
G1 X109 Y109.951 E43.16015
G1 X109.04 Y109.736 E43.17106
G1 X109.176 Y109.527 E43.1835
M204 S5000
G0 F3600 X109.459 Y109.81
M204 S2000
G1 F1800 X109.81 Y109.459 E43.20827
G1 X109.951 Y109.4 E43.21589
G1 X130.049 Y109.4 E44.21859
G1 X130.19 Y109.459 E44.22621
G1 X130.541 Y109.81 E44.25098
G1 X130.6 Y109.951 E44.2586
G1 X130.6 Y130.049 E45.2613
G1 X130.541 Y130.19 E45.26892
G1 X130.19 Y130.541 E45.29369
G1 X130.049 Y130.6 E45.30131
G1 X109.951 Y130.6 E46.30401
G1 X109.81 Y130.541 E46.31163
G1 X109.459 Y130.19 E46.3364
G1 X109.4 Y130.049 E46.34402
G1 X109.4 Y109.951 E47.34671
G1 X109.459 Y109.81 E47.35434
M204 S5000
G1 F2100 E42.85434
;MESH:17-2020.STL
G0 F3600 X110.614 Y110.614
G0 X129.33 Y129.33
G1 F2100 E47.35434
G0 F3600 X129.8 Y129.8
M204 S2000
;TYPE:WALL-OUTER
G1 F1800 X110.2 Y129.8 E48.33219
G1 X110.2 Y110.2 E49.31004
G1 X129.8 Y110.2 E50.28788
G1 X129.8 Y129.8 E51.26573
M204 S5000
G0 F3600 X129.6 Y129.8
G0 X129.4 Y129.4
M204 S2000
;TYPE:WALL-INNER
G1 F1800 X110.6 Y129.4 E52.20367
G1 X110.6 Y110.6 E53.1416
G1 X129.4 Y110.6 E54.07954
G1 X129.4 Y129.4 E55.01748
M204 S5000
G0 F3600 X129.01 Y129.01
M204 S2000
;TYPE:SKIN
G1 F1800 X110.99 Y129.01 E55.9165
G1 X110.99 Y110.99 E56.81552
G1 X129.01 Y110.99 E57.71454
G1 X129.01 Y129.01 E58.61356
M204 S5000
G0 F3600 X128.829 Y111.293
M204 S2000
G1 F1800 X128.706 Y111.169 E58.62227
M204 S5000
G0 F3600 X128.14 Y111.169
M204 S2000
G1 F1800 X128.829 Y111.859 E58.67092
M204 S5000
G0 F3600 X128.829 Y112.425
M204 S2000
G1 F1800 X127.574 Y111.169 E58.75951
M204 S5000
G0 F3600 X127.009 Y111.169
M204 S2000
G1 F1800 X128.829 Y112.99 E58.88795
M204 S5000
G0 F3600 X128.829 Y113.556
M204 S2000
G1 F1800 X126.443 Y111.169 E59.05633
M204 S5000
G0 F3600 X125.877 Y111.169
M204 S2000
G1 F1800 X128.829 Y114.122 E59.26465
M204 S5000
G0 F3600 X128.829 Y114.687
M204 S2000
G1 F1800 X125.312 Y111.169 E59.51283
M204 S5000
G0 F3600 X124.746 Y111.169
M204 S2000
G1 F1800 X128.829 Y115.253 E59.80094
M204 S5000
G0 F3600 X128.829 Y115.819
M204 S2000
G1 F1800 X124.18 Y111.169 E60.12899
M204 S5000
G0 F3600 X123.614 Y111.169
M204 S2000
G1 F1800 X128.829 Y116.384 E60.49693
M204 S5000
G0 F3600 X128.829 Y116.95
M204 S2000
G1 F1800 X123.049 Y111.169 E60.90478
M204 S5000
G0 F3600 X122.483 Y111.169
M204 S2000
G1 F1800 X128.829 Y117.516 E61.35256
M204 S5000
G0 F3600 X128.829 Y118.081
M204 S2000
G1 F1800 X121.917 Y111.169 E61.84024
M204 S5000
G0 F3600 X121.352 Y111.169
M204 S2000
G1 F1800 X128.829 Y118.647 E62.36781
M204 S5000
G0 F3600 X128.829 Y119.213
M204 S2000
G1 F1800 X120.786 Y111.169 E62.93533
M204 S5000
G0 F3600 X120.22 Y111.169
M204 S2000
G1 F1800 X128.829 Y119.778 E63.54274
M204 S5000
G0 F3600 X128.829 Y120.344
M204 S2000
G1 F1800 X119.655 Y111.169 E64.19005
M204 S5000
G0 F3600 X119.089 Y111.169
M204 S2000
G1 F1800 X128.829 Y120.91 E64.87729
M204 S5000
G0 F3600 X128.829 Y121.475
M204 S2000
G1 F1800 X118.523 Y111.169 E65.60444
M204 S5000
G0 F3600 X117.958 Y111.169
M204 S2000
G1 F1800 X128.829 Y122.041 E66.37148
M204 S5000
G0 F3600 X128.829 Y122.607
M204 S2000
G1 F1800 X117.392 Y111.169 E67.17846
M204 S5000
G0 F3600 X116.826 Y111.169
M204 S2000
G1 F1800 X128.829 Y123.173 E68.02537
M204 S5000
G0 F3600 X128.829 Y123.738
M204 S2000
G1 F1800 X116.261 Y111.169 E68.91215
M204 S5000
G0 F3600 X115.695 Y111.169
M204 S2000
G1 F1800 X128.829 Y124.304 E69.83886
M204 S5000
G0 F3600 X128.829 Y124.87
M204 S2000
G1 F1800 X115.129 Y111.169 E70.8055
M204 S5000
G0 F3600 X114.564 Y111.169
M204 S2000
G1 F1800 X128.829 Y125.435 E71.81201
M204 S5000
G0 F3600 X128.829 Y126.001
M204 S2000
G1 F1800 X113.998 Y111.169 E72.85845
M204 S5000
G0 F3600 X113.432 Y111.169
M204 S2000
G1 F1800 X128.829 Y126.567 E73.94483
M204 S5000
G0 F3600 X128.829 Y127.132
M204 S2000
G1 F1800 X112.866 Y111.169 E75.0711
M204 S5000
G0 F3600 X112.301 Y111.169
M204 S2000
G1 F1800 X128.829 Y127.698 E76.23728
M204 S5000
G0 F3600 X128.829 Y128.264
M204 S2000
G1 F1800 X111.735 Y111.169 E77.44339
M204 S5000
G0 F3600 X111.169 Y111.169
M204 S2000
G1 F1800 X128.829 Y128.829 E78.6894
M204 S5000
G0 F3600 X128.263 Y128.829
M204 S2000
G1 F1800 X111.169 Y111.735 E79.89547
M204 S5000
G0 F3600 X111.169 Y112.301
M204 S2000
G1 F1800 X127.697 Y128.829 E81.06161
M204 S5000
G0 F3600 X127.132 Y128.829
M204 S2000
G1 F1800 X111.169 Y112.866 E82.18788
M204 S5000
G0 F3600 X111.169 Y113.432
M204 S2000
G1 F1800 X126.566 Y128.829 E83.27423
M204 S5000
G0 F3600 X126 Y128.829
M204 S2000
G1 F1800 X111.169 Y113.998 E84.32063
M204 S5000
G0 F3600 X111.169 Y114.564
M204 S2000
G1 F1800 X125.435 Y128.829 E85.32714
M204 S5000
G0 F3600 X124.869 Y128.829
M204 S2000
G1 F1800 X111.169 Y115.129 E86.29375
M204 S5000
G0 F3600 X111.169 Y115.695
M204 S2000
G1 F1800 X124.303 Y128.829 E87.22043
M204 S5000
G0 F3600 X123.738 Y128.829
M204 S2000
G1 F1800 X111.169 Y116.261 E88.1072
M204 S5000
G0 F3600 X111.169 Y116.826
M204 S2000
G1 F1800 X123.172 Y128.829 E88.95408
M204 S5000
G0 F3600 X122.606 Y128.829
M204 S2000
G1 F1800 X111.169 Y117.392 E89.76102
M204 S5000
G0 F3600 X111.169 Y117.958
M204 S2000
G1 F1800 X122.04 Y128.829 E90.52803
M204 S5000
G0 F3600 X121.475 Y128.829
M204 S2000
G1 F1800 X111.169 Y118.523 E91.25517
M204 S5000
G0 F3600 X111.169 Y119.089
